X: 1202
M: 2/4
L: 1/16
K: G
dc |\
d3c A2F2 | e3d B2G2 | d3c AF fe | (e2 d4) d2 |\
d2^c2 cAfe | e2d2 dAaf | feea age^c | d4 "^da Capo"d2 |]
Ladies' chain.

